teeny/solid/html5.svg

<svg width="15" height="15" viewBox="0 0 15 15" fill="none" xmlns="http://www.w3.org/2000/svg">
<path fill-rule="evenodd" clip-rule="evenodd" d="M0.13206 0.161445C0.226738 0.0585498 0.360176 0 0.500002 0H14.5C14.6398 0 14.7733 0.0585498 14.8679 0.161445C14.9626 0.264341 15.0099 0.40218 14.9983 0.541523L13.9983 12.5415C13.9817 12.7408 13.8479 12.9111 13.6581 12.9743L7.65812 14.9743C7.55548 15.0086 7.44452 15.0086 7.34189 14.9743L1.34189 12.9743C1.15214 12.9111 1.01834 12.7408 1.00173 12.5415L0.00172873 0.541523C-0.00988318 0.40218 0.0373829 0.264341 0.13206 0.161445ZM11 3H4V7H10V9.13962L7.5 9.97295L5 9.13962V8H4V9.86038L7.5 11.027L11 9.86038V6H5V4H11V3Z" fill="black"/>
</svg>

<svg viewBox="0 0 15 15" xmlns="http://www.w3.org/2000/svg"><path fill-rule="evenodd" d="M.13.16C.22.05.35-.01.49-.01h13.99c.13 0 .27.05.36.16 .09.1.14.24.13.38l-1 11.99c-.02.19-.16.36-.35.43l-6 2c-.11.03-.22.03-.32 0l-6-2c-.19-.07-.33-.24-.35-.44L-.06.51C-.08.37-.03.23.07.12Zm10.86 2.83h-7v4h6v2.13l-2.5.83 -2.5-.84V7.97h-1v1.86l3.5 1.16 3.5-1.17V5.95h-6v-2h6v-1Z"/></svg>
